X: 37885
T: Soup Dragon, The
R: jig
M: 6/8
K: Bminor
|:fBB BAB|eff fed|~e3 ede|fed ede|
fBB BAB|eff fed|~e3 f2e|dBA B2 f:|
|:|faa afd|eff fed|~e3 ede|fed ede|
[1 faa afd|eff fed|~e3 f2e|dBA B2 f:|
[2 fBB BAB|eff fed|~e3 f2e|dBA Bz f||

